azure-patterns/svg-databox.svg

<svg xmlns="http://www.w3.org/2000/svg" viewBox="0 0 69 70">
                                
                            
  <path d="M44.5172,3.973 C44.5172,3.973 41.1552,5.477 38.6282,8.191 C36.1012,10.906 34.8282,14.664 34.8282,14.664 C34.8282,14.664 30.9862,15.395 27.5822,18.027 C24.1782,20.658 22.0902,25.147 21.9022,28.321 C21.7142,31.495 22.3822,34.899 23.8442,37.05 C25.3062,39.201 26.6212,40.725 28.7722,42.249 C30.9232,43.774 31.0692,43.648 31.1322,43.648 C31.1822,43.648 31.1512,35.989 31.1382,33.013 C31.1342,32.37 30.6122,31.851 29.9692,31.853 L24.1482,31.866 C23.3192,31.868 22.9012,30.867 23.4862,30.279 L32.8842,20.83 C33.2882,20.424 33.9462,20.423 34.3522,20.828 L43.7492,30.208 C44.3792,30.837 43.9342,31.913 43.0442,31.913 L37.2882,31.913 C36.6442,31.913 36.1222,32.435 36.1222,33.079 L36.1222,56.766 C36.1222,57.502 35.5262,58.098 34.7902,58.098 L29.1912,58.098 C28.2882,58.098 27.8342,59.19 28.4722,59.83 L37.8092,69.2 C38.1812,69.574 38.7862,69.576 39.1612,69.205 L48.6672,59.815 C49.3132,59.177 48.8612,58.077 47.9542,58.077 L42.2992,58.077 C41.5632,58.077 40.9672,57.481 40.9672,56.745 L40.9672,45.047 L52.1602,45.047 C53.6212,45.047 59.1442,44.233 62.7152,40.85 C66.2862,37.467 68.9492,32.832 68.8862,27.789 C68.8232,22.746 66.3492,18.862 64.3752,16.513 C62.4022,14.163 58.3902,12.286 56.5862,11.7 C54.7902,11.115 52.6922,10.937 52.6922,10.937 C52.6922,10.937 50.6872,8.306 49.0902,6.834 C47.4932,5.362 44.5172,3.973 44.5172,3.973" fill="#1B70BC"></path>
  <path d="M39.0045,1.1644 C39.0045,1.1644 35.9245,2.9714 33.7005,5.4764 C31.4765,7.9824 30.0775,11.5004 30.0775,11.5004 C30.0775,11.5004 23.0615,13.1194 18.9585,19.5094 C14.8545,25.8984 16.1495,32.3614 17.5585,35.5254 C18.9685,38.6884 19.6125,39.2434 21.1505,41.0174 C22.7795,42.8964 26.0365,44.7964 26.0365,44.7964 L14.7925,44.7964 C12.3795,44.7964 6.5855,43.7634 2.7335,38.5004 C-1.1205,33.2384 0.1015,27.2874 0.5085,25.8784 C0.9165,24.4684 2.3255,20.2714 6.5235,17.5154 C10.7205,14.7584 13.6955,15.1024 13.6955,15.1024 C13.6955,15.1024 15.5755,7.2094 21.2755,3.5454 C26.9765,-0.1196 32.4585,-0.9966 39.0045,1.1644" fill="#58B3DD"></path>
</svg>

<svg xmlns="http://www.w3.org/2000/svg" viewBox="0 0 69 70"><path d="M44.517 3.973s-3.362 1.504-5.889 4.218c-2.527 2.715-3.8 6.473-3.8 6.473s-3.842.731-7.246 3.363c-3.404 2.631-5.492 7.12-5.68 10.294-.188 3.174.48 6.578 1.942 8.729 1.462 2.151 2.777 3.675 4.928 5.199 2.151 1.525 2.297 1.399 2.36 1.399.05 0 .02-7.659.006-10.635a1.166 1.166 0 0 0-1.169-1.16l-5.82.013c-.83.002-1.248-.999-.663-1.587l9.398-9.449a1.038 1.038 0 0 1 1.468-.002l9.397 9.38c.63.629.185 1.705-.705 1.705h-5.756c-.644 0-1.166.522-1.166 1.166v23.687c0 .736-.596 1.332-1.332 1.332h-5.599c-.903 0-1.357 1.092-.719 1.732l9.337 9.37a.958.958 0 0 0 1.352.005l9.506-9.39c.646-.638.194-1.738-.713-1.738H42.3a1.332 1.332 0 0 1-1.332-1.332V45.047H52.16c1.461 0 6.984-.814 10.555-4.197 3.571-3.383 6.234-8.018 6.171-13.061-.063-5.043-2.537-8.927-4.51-11.276-1.974-2.35-5.986-4.227-7.79-4.813-1.796-.585-3.894-.763-3.894-.763s-2.005-2.631-3.602-4.103-4.573-2.861-4.573-2.861" fill="#1B70BC"/><path d="M39.005 1.164s-3.08 1.807-5.305 4.312c-2.224 2.506-3.623 6.024-3.623 6.024s-7.016 1.62-11.119 8.01c-4.103 6.388-2.808 12.851-1.4 16.015 1.41 3.163 2.055 3.718 3.593 5.492 1.628 1.88 4.886 3.78 4.886 3.78H14.793c-2.413 0-8.207-1.034-12.06-6.297C-1.12 33.238.102 27.287.508 25.878c.408-1.41 1.817-5.607 6.016-8.363 4.196-2.757 7.171-2.413 7.171-2.413s1.88-7.893 7.58-11.557C26.977-.12 32.46-.997 39.005 1.165" fill="#58B3DD"/></svg>
